!!!OTL: 528. Jn der heimath ist es schoen.
!!!COM: A. Zoellner
!!!ODT: @@DE
!!!ARE: Europa, Mitteleuropa, Deutschland
!!!SCT: B0528
!!!TXL: @@DE
!!!YEM: Copyright 1995, estate of Helmut Schaffrath.
**kern	**text
*ICvox	*
*Ivox	*
*clefG2	*
*M3/4	*
*k[f#c#]	*
*D:	*
!LO:TX:a:t=Mäßig langsam.	!
{8.f#	Jn
16g	der
=1	=1
4.a	Hei-
8f#	-math
8.dd	iſt
16cc#	es
=2	=2
2b}	ſchön,
{8b	auf
8a	der
=3	=3
4.g	Ber-
8f#	-ge
8.g	lich-
16b	-ten
=4	=4
2a}	Höh'n,
{8.f#	auf
16g	den
=5	=5
4.a	ſchrof-
8f#	-fen
8.dd	Fel-
16cc#	-ſen-
=6	=6
8cc#L	-pfa-
8bJ	.
4b}	-den,
{8b	auf
8dd	der
=7	=7
4.cc#	Flu-
8a	-ren
(12g#L	grü-
12aJ	.
12b)	-nen
=8	=8
8bL	Saa-
8aJ	.
8.a;L	-ten,
16gJ}	.
{8.f#	wo
16g	die
=9	=9
4.a	Her-
8b	-den
8cc#	wei-
8dd	-dend
=10	=10
2b}	gehn.
{8.dd	Jn
16b	der
=11	=11
4b	Hei-
4a	-math
8cc#	iſt
8ee	es
=12	=12
2dd}	ſchön,
!LO:TUP:a	!
{(12ddL	in
12cc#J	.
12b)	der
=13	=13
8.bL	Hei-
16aJ	.
4a	-math
(<12a/L	iſt
12cc#J	.
12ee)	es
=14	=14
2dd;}	ſchön!
==	==
!!!AGN: Wander -, Heimat - Lied
!!!GTL: Wanderlieder
!!!ONB: ESAC (Essen Associative Code) Database: BOEHME
!!!AMT: simple triple
!!!AIN: vox
!!!EED: Helmut Schaffrath
!!!EEV: 1.0
!!!RDF**kern: < = below
!!Mel. v. Andreas Ʒöllner um 1840.
!!@@COMMENT:"Worte vom Kapellmeiſter Karl Krebs in Hamburg um 1830 -35 gedichtet und ſelbſt kom-
!!ponirt für Sologeſang. Krebs lebte und wirkte ſpäter (ſeit 1549) in Dresden als R. Wagners
!!Nachfolger und ſtarb daſelbſt 1880. - Ʒöllners Kompoſition für Männergeſang entſtand um 1840."
!!@@END:
!!!Text: K. Krebs
!!!URL-scan: https://archive.org/details/BoehmeVtLieder1895/page/n419/mode/2up
!!!ENC: Anna Maria Matuszewska
!!!EEV: 2024/11/07
*-	*-
